icon-svg/vac_mbrush.svg

<svg xmlns="http://www.w3.org/2000/svg" fill="#44739e" viewBox="0 0 24 24"><path d="m21.063 11.385-.03 1.391.283.146-.015.342.554.017a4.1 4.1 0 0 0 .05-2.337l-.579-.018-.017.41zm-16.739.937.014-1.391-.284-.14.012-.342h-.555a4.107 4.107 0 0 0-.024 2.337l.579.006.013-.41zm-1.229-.278.113.002.009-.898-.165-.011.006-.556-.113-.001h-.01l-.113-.001-.007.401-.642-.014v.001l-.113-.002-.004.35.113.001.144.002-.005.436-.257.002-.004.415.747.016.002.338.113.001h.006l.114.001.011-.483zm9.26-2.93c-2.333-.566-4.746-1.152-7.151-.03l-.09.042-.014 1.722h-.023l-.49-.005-.014 1.437.512-.079-.019 1.937.175-.081a6.4 6.4 0 0 1 1.239-.424l3.117.436.046-.5c.166.025.331.052.5.082v.3l1.974.136.148.036c2.111.522 4.288 1.06 6.468.331l.534.044.035-.263.113-.051.09-.042.012-1.2.776.008v-.393l.439-.015.009-.877-.414-.005v-.464l-.734-.007.013-.064-.07-.04.016-2.015-.175.082c-2.345 1.097-4.723.52-7.022-.038m6.882 4.77c-2.315 1.027-4.662.447-6.932-.115s-4.622-1.142-6.97-.14l.014-1.4c2.315-1.026 4.661-.446 6.931.115s4.623 1.143 6.97.141zm.031-2.943-.422-.243s-.341-.086-.39-.106-.691-.092-.691-.092l-.906.123-.147.043-1.643-.341-.007.666h-.392l.007-.666-1.931-.259-1.32-.014-1.276.226-.007.667h-.318l.007-.667-1.708.208-.533-.086-1.118-.21-.913.141-.193.219.009-1.153c2.313-1.036 4.661-.466 6.932.085s4.625 1.123 6.971.11z"/></svg>

<?xml version="1.0" encoding="UTF-8"?>
<svg width="24px" fill="#44739e" height="24px" viewBox="0 0 24 24" version="1.1" xmlns="http://www.w3.org/2000/svg" xmlns:xlink="http://www.w3.org/1999/xlink">
            <path d="m 21.063,11.385 -0.03,1.391 0.283,0.146 -0.015,0.342 0.554,0.017 a 4.1,4.1 0 0 0 0.05,-2.337 l -0.579,-0.018 -0.017,0.41 z M 4.324,12.322 4.338,10.931 4.054,10.791 4.066,10.449 H 3.511 a 4.107,4.107 0 0 0 -0.024,2.337 l 0.579,0.006 0.013,-0.41 z M 3.095,12.044 3.208,12.046 3.217,11.148 3.052,11.137 3.058,10.581 2.945,10.58 H 2.935 L 2.822,10.579 2.815,10.98 2.173,10.966 v 0.001 l -0.113,-0.002 -0.004,0.35 0.113,0.001 0.144,0.002 -0.005,0.436 -0.257,0.002 -0.004,0.415 0.747,0.016 0.002,0.338 0.113,10e-4 h 0.006 l 0.114,10e-4 0.011,-0.483 z m 9.26,-2.93 C 10.022,8.548 7.609,7.962 5.204,9.084 L 5.114,9.126 5.1,10.848 H 5.077 L 4.587,10.843 4.573,12.28 5.085,12.201 5.066,14.138 5.241,14.057 A 6.4,6.4 0 0 1 6.48,13.633 l 3.117,0.436 0.046,-0.5 c 0.166,0.025 0.331,0.052 0.5,0.082 v 0.3 l 1.974,0.136 0.148,0.036 c 2.111,0.522 4.288,1.06 6.468,0.331 l 0.534,0.044 0.035,-0.263 0.113,-0.051 0.09,-0.042 0.012,-1.2 0.776,0.008 v -0.393 l 0.439,-0.015 0.009,-0.877 -0.414,-0.005 v -0.464 l -0.734,-0.007 0.013,-0.064 -0.07,-0.04 0.016,-2.015 -0.175,0.082 c -2.345,1.097 -4.723,0.52 -7.022,-0.038 z m 6.882,4.77 c -2.315,1.027 -4.662,0.447 -6.932,-0.115 -2.27,-0.562 -4.622,-1.142 -6.97,-0.14 l 0.014,-1.4 c 2.315,-1.026 4.661,-0.446 6.931,0.115 2.27,0.561 4.623,1.143 6.97,0.141 z m 0.031,-2.943 -0.422,-0.243 c 0,0 -0.341,-0.086 -0.39,-0.106 C 18.407,10.572 17.765,10.5 17.765,10.5 l -0.906,0.123 -0.147,0.043 -1.643,-0.341 -0.007,0.666 H 14.67 l 0.007,-0.666 -1.931,-0.259 -1.32,-0.014 -1.276,0.226 -0.007,0.667 H 9.825 L 9.832,10.278 8.124,10.486 7.591,10.4 6.473,10.19 5.56,10.331 5.367,10.55 5.376,9.397 c 2.313,-1.036 4.661,-0.466 6.932,0.085 2.271,0.551 4.625,1.123 6.971,0.11 z"/>

</svg>
